vue/src/assets/icon/paper3.svg

<?xml version="1.0" encoding="UTF-8"?>
<svg width="784px" height="896px" viewBox="0 0 784 896" version="1.1" xmlns="http://www.w3.org/2000/svg" xmlns:xlink="http://www.w3.org/1999/xlink">
    <!-- Generator: Sketch 46.1 (44463) - http://www.bohemiancoding.com/sketch -->
    <title>Shape</title>
    <desc>Created with Sketch.</desc>
    <defs></defs>
    <g id="Page-1" stroke="none" stroke-width="1" fill="none" fill-rule="evenodd">
        <g id="paper3" fill-rule="nonzero" fill="#000000">
            <path d="M587.866435,532.271312 L336.036919,532.271312 C320.583972,532.271312 308.055634,544.786347 308.055634,560.252597 C308.055634,575.664612 320.583972,588.179646 336.036919,588.179646 L587.866435,588.179646 C603.319382,588.179646 615.84772,575.664611 615.84772,560.252597 C615.847719,544.786347 603.319381,532.271312 587.866435,532.271312 Z M587.866435,0.303538 C584.39538,0.303538 252.094089,0.303538 252.094089,0.303538 C192.893779,0.303538 140.169974,54.626771 140.169974,112.227653 L107.844754,112.993086 C48.631141,112.993086 0.265597,166.550886 0.265597,224.151768 L0.265597,783.772345 C0.265597,841.373228 52.989402,895.69646 112.189712,895.69646 L531.904889,895.69646 C591.105199,895.69646 643.829004,841.373227 643.829004,783.772345 L671.810289,783.772345 C731.010599,783.772345 783.734404,729.449112 783.734404,671.84823 L783.734404,224.806684 L587.866435,0.303538 Z M531.904888,839.734916 L112.188688,839.734916 C82.81366,839.734916 56.226119,812.245842 56.226119,783.772347 L56.226119,224.151769 C56.226119,195.624039 80.163298,169.064126 109.523999,169.064126 L140.16895,168.190223 L140.16895,671.849254 C140.16895,729.450137 192.892755,783.773369 252.093065,783.773369 L587.865411,783.773369 C587.866435,812.244818 561.26559,839.734916 531.904888,839.734916 Z M727.771835,671.848231 C727.771835,700.320703 701.185317,727.8108 671.809266,727.8108 L252.094088,727.8108 C222.71906,727.8108 196.131519,700.321726 196.131519,671.848231 L196.131519,112.227654 C196.131519,83.699924 222.719061,56.265085 252.094088,56.265085 L531.904888,56.265085 C531.454633,120.698583 531.904888,168.899375 531.904888,168.899375 C531.904888,226.993491 584.219371,280.113316 643.829003,280.113316 C643.829003,280.113316 673.559118,280.113316 727.771834,280.113316 L727.771835,671.848231 Z M643.829004,224.151769 C614.017025,224.151769 587.866435,169.993288 587.866435,140.919113 C587.866435,140.919113 587.866435,111.517479 587.866435,57.140011 L587.866435,57.085776 L727.771835,224.151769 L643.829004,224.151769 Z M587.866435,392.529641 L336.036919,392.529641 C320.583972,392.529641 308.055634,405.044676 308.055634,420.45669 C308.055634,435.921917 320.583972,448.437975 336.036919,448.437975 L587.866435,448.437975 C603.319382,448.437975 615.84772,435.92294 615.84772,420.45669 C615.847719,405.044676 603.319381,392.529641 587.866435,392.529641 Z" id="Shape"></path>
        </g>
    </g>
</svg>

<svg width="784" height="896" viewBox="0 0 784 896" xmlns="http://www.w3.org/2000/svg"><title>Shape</title><path d="M587.866 532.27h-251.83c-15.452 0-27.98 12.516-27.98 27.983 0 15.412 12.528 27.927 27.98 27.927h251.83c15.453 0 27.982-12.515 27.982-27.927 0-15.467-12.53-27.982-27.982-27.982zm0-531.966H252.094c-59.2 0-111.924 54.323-111.924 111.924l-32.325.765C48.63 112.993.265 166.55.265 224.153v559.62c0 57.6 52.724 111.923 111.925 111.923h419.715c59.2 0 111.924-54.323 111.924-111.924h27.98c59.2 0 111.924-54.323 111.924-111.924v-447.04L587.866.303zm-55.96 839.43H112.188c-29.376 0-55.964-27.488-55.964-55.962v-559.62c0-28.528 23.937-55.088 53.298-55.088l30.645-.874v503.66c0 57.6 52.723 111.923 111.923 111.923h335.772c0 28.472-26.6 55.962-55.96 55.962zM727.77 671.85c0 28.473-26.587 55.963-55.963 55.963H252.093c-29.375 0-55.962-27.488-55.962-55.962v-559.62c0-28.528 26.587-55.963 55.962-55.963h279.81c-.45 64.434 0 112.634 0 112.634 0 58.093 52.315 111.213 111.925 111.213h83.942v391.735zM643.83 224.152c-29.813 0-55.964-54.16-55.964-83.233V57.085l139.906 167.066H643.83zM587.865 392.53h-251.83c-15.452 0-27.98 12.515-27.98 27.927 0 15.465 12.528 27.98 27.98 27.98h251.83c15.453 0 27.982-12.514 27.982-27.98 0-15.412-12.53-27.927-27.982-27.927z" fill-rule="nonzero" fill="#000"/></svg>
